images/usernames_40_color_dark.svg

<svg width="40" height="40" viewBox="0 0 40 40" fill="none" xmlns="http://www.w3.org/2000/svg">
<circle cx="20" cy="20" r="19.175" fill="#ADB4F1" stroke-width="1.65" stroke="black"/>
<path fill-rule="evenodd" clip-rule="evenodd" d="M10 20C10 14.4772 14.4772 10 20 10C25.5228 10 30 14.4772 30 20C30 21.5324 29.6779 22.5276 29.2669 23.1078C28.8857 23.6459 28.3909 23.8889 27.7778 23.8889C27.0484 23.8889 26.1111 23.0873 26.1111 21.9444V20C26.1111 16.6249 23.3751 13.8889 20 13.8889C16.6249 13.8889 13.8889 16.6249 13.8889 20C13.8889 23.3751 16.6249 26.1111 20 26.1111C21.7807 26.1111 23.3835 25.3495 24.5005 24.1342C25.2015 25.3055 26.4289 26.1111 27.7778 26.1111C29.1091 26.1111 30.281 25.5207 31.0803 24.3922C31.8499 23.3057 32.2222 21.8009 32.2222 20C32.2222 13.2499 26.7501 7.77778 20 7.77778C13.2499 7.77778 7.77778 13.2499 7.77778 20C7.77778 26.7501 13.2499 32.2222 20 32.2222C22.2244 32.2222 24.3131 31.627 26.1119 30.5864C26.6431 30.2792 26.8246 29.5995 26.5173 29.0683C26.2101 28.5371 25.5304 28.3556 24.9992 28.6629C23.5295 29.5131 21.8233 30 20 30C14.4772 30 10 25.5228 10 20ZM23.8889 20C23.8889 17.8522 22.1478 16.1111 20 16.1111C17.8522 16.1111 16.1111 17.8522 16.1111 20C16.1111 22.1478 17.8522 23.8889 20 23.8889C22.1478 23.8889 23.8889 22.1478 23.8889 20Z" fill="white"/>
</svg>

<svg xmlns="http://www.w3.org/2000/svg" width="40" height="40" fill="none"><circle cx="20" cy="20" r="19.175" fill="#ADB4F1" stroke="#000" stroke-width="1.65"/><path fill="#fff" fill-rule="evenodd" d="M10 20c0-5.523 4.477-10 10-10s10 4.477 10 10c0 1.532-.322 2.528-.733 3.108-.381.538-.876.78-1.49.78-.729 0-1.666-.8-1.666-1.944V20a6.111 6.111 0 1 0-1.61 4.134c.7 1.171 1.928 1.977 3.277 1.977 1.331 0 2.503-.59 3.302-1.719.77-1.086 1.142-2.591 1.142-4.392 0-6.75-5.472-12.222-12.222-12.222S7.778 13.25 7.778 20 13.25 32.222 20 32.222a12.17 12.17 0 0 0 6.112-1.636 1.111 1.111 0 1 0-1.113-1.923A9.95 9.95 0 0 1 20 30c-5.523 0-10-4.477-10-10m13.889 0a3.889 3.889 0 1 0-7.778 0 3.889 3.889 0 0 0 7.778 0" clip-rule="evenodd"/></svg>
